X:14
T: WENN MEIN PFEIFCHEN DAMPFT UND GLUEHT
N: F0052A
O: Europa, Mitteleuropa, Deutschland
R: Scherz - Lied, Lob des Tabaks
M: 2/4
L: 1/16
K: D
 | D2F2F2A2 | A2FGE4
D2F2F2A2 | A4E4
D2F2F2A2 | A2FGE4
A3dBGGE | E4D2z2
E3AA3E | E3DD2C2
E3cc3^G | ^G4A2z2
D2F2F2A2 | A2FGE4
A3dBGGE | E4D2z2

